X:1
T:Title
%%score { ( 1 4 ) | ( 2 3 ) }
L:1/8
M:4/4
K:G
V:1 treble nm="Grand Piano"
V:4 treble 
V:2 treble 
V:3 treble 
V:1
 z4 z2[Q:1/4=100] G2 | B>A GB d3 [EGc] | [DGB]2 [CFA]2 [B,G]3 [DGB] | [GB][FA][FA][Ac] [Ac]BBd | %4
[M:3/4] [Fd]4 [Ac]2 |[M:1/4] [GB]2 |[M:4/4] [FA][GB][FA][GB] [FA]2 [Ac]2 | BcBc B2 d2 | %8
 [Ge]2 [EGc][EA] [B,DG]2 [A,DF]2 |[M:3/4] [B,DG]6 |[M:1/4] [DGB]2 |[M:4/4] z4 [FA]4 | z4 [GB]4 | %13
 [DFA]2 [DGB]2 [EGc] [EGc]2 [EGc] | [DGB]2 [DFA]2 [DGB]2 [DGB]2 | z4 [FA]4 | z4 [GB]4 | %17
 [Ge]2 [Ge]2 [Gd] [DGB]2 [EGc] |[M:3/4] [DGB]2 [CFA]2 [B,G]2 |] %19
V:2
 z4 z2 [G,B,D]2 | D2 z2 z4[K:bass] | D,2 D,2 G,,3 G,, | z4[K:treble] [G,D]2 .D2 | %4
[M:3/4][K:bass] [D,A,]4 [F,D]2 |[M:1/4] [G,D]2 |[M:4/4] [D,D]2 [D,D]2 [D,D]2 [D,D]2 | .D2 .D2 z4 | %8
 [C,C]2 z C D,2 D,2 |[M:3/4] G,,6 |[M:1/4] G,2 |[M:4/4] [D,D]4[K:treble][K:bass] z4 | %12
 z ABG, G,[K:bass]G,G,G, | D,2 G,2 C, C,2 C, | D,2 D,2 G,2 G,2 | [D,D]4[K:treble][K:bass] z4 | %16
 z ABG, G,G,G,[G,DG] | [C,C]2 [E,C]2 [G,B,] G,2 C, |[M:3/4] D,2 D,2 G,,2 |] %19
V:3
 x8 | [G,G]->[G,-CG] [G,B,][G,DG] [G,B,G]3[K:bass] C, | x8 | %3
 [D,D]2 [D,D]2[K:treble] z G[G,G]-[G,B,G] |[M:3/4][K:bass] x6 |[M:1/4] x2 |[M:4/4] x8 | %7
 [G,G]-[G,EG][G,G]-[G,EG] [G,DG]2 [G,B,G]2 | z2 C,2 z4 |[M:3/4] x6 |[M:1/4] x2 | %11
[M:4/4] z[K:treble] GA[K:bass]D, D,D,D,D, | [G,D]4 z4[K:bass] | x8 | x8 | %15
 z[K:treble] GA[K:bass]D, D,D,D,D, | [G,D]4 z4 | x8 |[M:3/4] x6 |] %19
V:4
 x8 | x8 | x8 | x8 |[M:3/4] x6 |[M:1/4] x2 |[M:4/4] x8 | x8 | x8 |[M:3/4] x6 |[M:1/4] x2 | %11
[M:4/4] [FA]Bc[DGB] DDD[DAc] | [GB]cd[DAc] DDD[DGB] | x8 | x8 | [FA]Bc[DGB] DDD[DAc] | %16
 [GB]cd[DAc] DDDB | x8 |[M:3/4] x6 |] %19

